!!!COM: Bach, Johann Sebastian
!!!OPR: Joh. Seb. Bachs vierstimmige Choralges‰nge
!!!XEN: Four-part Chorales
!!!OTL: 24. Christ ist erstanden
!!!SCT: BWV 276
!!!SCA: Thematisch-systematisches Verzeichnis der musikalischen Werke Johann Sebastian Bach: Bach-Werke-Verzeichnis (Schmieder)
!!!YOR: Bach Gesellschaft Edition xxxix
!!!ENC: Steven Rasmussen
!!!CDT: 1685/3//-1750/7/28/
!!!OCY: Deutschland
!!!YEC: Copyright (c) 1994, 2000 Center for Computer Assisted Research in the Humanities
!!!YEM: Rights to all derivative editions reserved
!!!YEN: United States of America
**kern	**silbe	**kern	**silbe	**kern	**silbe	**kern	**silbe
*I:[BASSO]	*I:[BASSO]	*I:[TENORE]	*I:[TENORE]	*I:[ALTO]	*I:[ALTO]	*I:[SOPRANO]	*I:[SOPRANO]
*clefF4	*	*clefGv2	*	*clefG2	*	*clefG2	*
*k[]	*	*k[]	*	*k[]	*	*k[]	*
*a:	*	*a:	*	*a:	*	*a:	*
*M4/4	*	*M4/4	*	*M4/4	*	*M4/4	*
4D	.	8dL	.	4f	.	4a	Christ
.	.	8cJ	.	.	.	.	.
=1	=1	=1	=1	=1	=1	=1	=1
8.EL	.	4B	.	8fL	.	4g	ist
.	.	.	.	8eJ	.	.	.
16DJk	.	.	.	.	.	.	.
8CL	.	8cL	er-	8eL	er-	8aL	er-
8BBJ	.	8dJ	.	8g#J	.	8bJ	.
4AA	.	8eL	-stan-	4.a	-stan-	(4cc	-stan-
.	.	16fL	.	.	.	.	.
.	.	16eJJ	.	.	.	.	.
8.BB-L	.	4d	.	.	.	4dd)	.
.	.	.	.	[8gn	.	.	.
16CJk	.	.	.	.	.	.	.
=2	=2	=2	=2	=2	=2	=2	=2
2D;	.	2d;	-den	8gL]	.	2a;	-den
.	.	.	.	16fL	.	.	.
.	.	.	.	16eJJ	.	.	.
.	.	.	.	4f;	-den	.	.
4C#	.	4A	.	4e	.	4a	von
8DL	.	4A	.	4d	.	8fL	der
8EJ	.	.	.	.	.	8gJ	.
=3	=3	=3	=3	=3	=3	=3	=3
4.F	.	4A	.	8cL	.	8aL	Mar-
.	.	.	.	8c#J	.	8gJ	.
.	.	4A	.	4d	.	4f	-ter
8FF	.	.	.	.	.	.	.
8GGL	.	8B-L	.	8c#	.	(8eL	al-
8BB-J	.	8F	.	4d	.	8dJ	.
4AA	.	8G	.	.	.	4e)	.
.	.	16AL	.	8c#	.	.	.
.	.	16GJJ	.	.	.	.	.
=4	=4	=4	=4	=4	=4	=4	=4
2D;	.	2F;	.	2A;	.	2d;	-le:
4r	.	4r	.	4r	.	4r	.
4DD	.	4A	.	4d	.	4f	dess
=5	=5	=5	=5	=5	=5	=5	=5
4.EE	.	8EL	.	8dL	.	4g	soll'n
.	.	8FJ	.	16cL	.	.	.
.	.	.	.	16BJJ	.	.	.
.	.	4G	.	4c	.	4g	wir
8FF	.	.	.	.	.	.	.
8GGL	.	(16GLL	.	(8c	.	4d	al-
.	.	16DJJ	.	.	.	.	.
8GG#J	.	4E)	.	4B)	.	.	.
4AA	.	.	.	.	.	4c	-le
.	.	16FLL	.	16ALL	.	.	.
.	.	16GJJ	.	16B-JJ	.	.	.
=6	=6	=6	=6	=6	=6	=6	=6
8AAL	.	8AL	.	8cL	.	(4f	froh
8BB-	.	8FJ	.	8dJ	.	.	.
8AA	.	4B-	.	4e	.	4g)	.
8GGJ	.	.	.	.	.	.	.
4FF;	.	4c;	.	4f;	.	4a;	sein;
4C#	.	4A	.	4e	.	8aL	Chri-
.	.	.	.	.	.	8gJ	.
=7	=7	=7	=7	=7	=7	=7	=7
4D	.	4A	.	(8e	.	4f	-stus
.	.	.	.	4d)	.	.	.
4E	.	8GL	.	.	.	4g	will
.	.	8B-J	.	8c#	.	.	.
8FL	.	4A	.	4.d	.	8aL	un-
8EJ	.	.	.	.	.	8gJ	.
4D	.	16ALL	.	.	.	4f	-ser
.	.	16GJ	.	.	.	.	.
.	.	8AJ	.	8cn	.	.	.
=8	=8	=8	=8	=8	=8	=8	=8
8DL	.	16GLL	.	8B-	.	(4e	Trost
.	.	16FJ	.	.	.	.	.
8C#J	.	8GJ	.	4A	.	.	.
4D	.	16FLL	.	.	.	4d)	.
.	.	16EJ	.	.	.	.	.
.	.	8FJ	.	8Bn	.	.	.
2AA;	.	2E;	.	2c#;	.	2e;	sein.
=9	=9	=9	=9	=9	=9	=9	=9
8FF#L	.	8AL	.	4d	.	4d	Ky-
8EEJ	.	8GJ	.	.	.	.	.
8FF#L	.	8AL	.	4c	.	4d	-rie
8DDJ	.	8F#J	.	.	.	.	.
8GGL	e-	8GL	e-	4c	e-	2d	e-
8AA	.	8DJ	.	.	.	.	.
8BB-	.	[4G	.	[4B-	.	.	.
8GGJ	.	.	.	.	.	.	.
=10	=10	=10	=10	=10	=10	=10	=10
(2D	-leis!	4G]	.	4B-]	.	1d;	-leis!
.	.	8F#L	.	8AL	.	.	.
.	.	8EJ	.	8GJ	.	.	.
2DD;)	.	2F#;	-leis!	2A;	-leis!	.	.
=11||	=11||	=11||	=11||	=11||	=11||	=11||	=11||
8DL	.	4d	.	4f	.	4a	W√§r'
8EJ	.	.	.	.	.	.	.
4F	.	8cL	.	8eL	.	4a	er
.	.	8BJ	.	8dJ	.	.	.
8FL	.	4c	.	8gL	.	4g	nicht
8EJ	.	.	.	8b-J	.	.	.
8FL	.	4c	.	8aL	.	8aL	er-
8GJ	.	.	.	8gJ	.	8b-J	.
=12	=12	=12	=12	=12	=12	=12	=12
8AL	.	4.c	.	2f	.	(4cc	-stan-
8FJ	.	.	.	.	.	.	.
4B-	.	.	.	.	.	4dd)	.
.	.	8B-	.	.	.	.	.
4F;	.	4c;	.	4f;	.	4a;	-den,
4F	.	8cL	.	4f	.	4a	so
.	.	8dJ	.	.	.	.	.
=13	=13	=13	=13	=13	=13	=13	=13
4C#	.	(8e	.	4e	.	8.aL	w√§r'
.	.	4A)	.	.	.	.	.
.	.	.	.	.	.	16gJk	.
4D	.	.	.	8dL	.	8fL	die
.	.	8G	.	8eJ	.	8gJ	.
8DL	.	8FL	.	8fL	.	8aL	Welt
8EJ	.	8GJ	.	8c#J	.	8gJ	.
8FL	.	4A	.	4d	.	4f	ver-
8GJ	.	.	.	.	.	.	.
=14	=14	=14	=14	=14	=14	=14	=14
4A	.	4.A	.	4d	.	(8eL	-gan-
.	.	.	.	.	.	8dJ	.
4AA	.	.	.	4c#	.	4e)	.
.	.	8G	.	.	.	.	.
4BB-;	.	4F;	.	4d;	.	4d;	-gen:
4AA	.	4A	.	4cn	.	4f	seit
=15	=15	=15	=15	=15	=15	=15	=15
8EEL	.	8GL	.	8cL	.	4g	dass
8DDJ	.	8FJ	.	8BJ	.	.	.
8EEL	.	4G	.	4c	.	4g	er
8FFJ	.	.	.	.	.	.	.
4GG	.	8.GL	.	(8c	.	4d	nun
.	.	.	.	4B-)	.	.	.
.	.	16FJk	.	.	.	.	.
4AA	.	4E	.	.	.	4c	er-
.	.	.	.	16ALL	.	.	.
.	.	.	.	16GJJ	.	.	.
=16	=16	=16	=16	=16	=16	=16	=16
8AAL	.	4A	.	4c	.	4f	-stan-
8GGJ	.	.	.	.	.	.	.
8FFL	.	4G	.	4c	.	4g	-den
8EEJ	.	.	.	.	.	.	.
4FF;	.	4F;	.	4c;	.	4a;	ist,
8FL	.	8AL	.	8cL	.	4a	so
8EJ	.	8GJ	.	8c#J	.	.	.
=17	=17	=17	=17	=17	=17	=17	=17
[2D	lo-	8FL	.	4d	.	8aL	lo-
.	.	8EJ	.	.	.	8gJ	.
.	.	8DL	.	4A	.	8.fL	-ben
.	.	8EJ	.	.	.	.	.
.	.	.	.	.	.	16gJk	.
8D]	.	8FL	.	4d	.	4a	wir
8E	-ben	8GJ	.	.	.	.	.
8F	wir	4A	.	4d	.	4f	den
8G	den	.	.	.	.	.	.
=18	=18	=18	=18	=18	=18	=18	=18
8AL	.	8AL	.	(8d	.	4e	Her-
8AAJ	.	8EJ	.	4c)	.	.	.
4D	.	4F	.	.	.	4d	-ren
.	.	.	.	8B	.	.	.
2C;	.	2G;	.	2c;	.	2e;	Christ.
=19	=19	=19	=19	=19	=19	=19	=19
8FF#L	Ky-	(8A	Ky-	8cL	Ky-	4d	Ky-
8GGJ	.	4G)	.	8B-J	.	.	.
4.C	-rie	.	.	4A	-rie	4d	-rie
.	.	8F#	-rie	.	.	.	.
.	.	8GL	e-	4.G	e-	2d	e-
16BB-LL	e-	8DJ	.	.	.	.	.
16AAJJ	.	.	.	.	.	.	.
8BB-L	.	[4G	.	.	.	.	.
8GGJ	.	.	.	8B-	.	.	.
=20	=20	=20	=20	=20	=20	=20	=20
(2D	-leis!	4G]	.	1A;	-leis!	1d;	-leis!
.	.	8F#L	.	.	.	.	.
.	.	8EJ	.	.	.	.	.
2DD;)	.	2F#;	-leis!	.	.	.	.
=21:||:	=21:||:	=21:||:	=21:||:	=21:||:	=21:||:	=21:||:	=21:||:
4C#	.	4A	.	4e	.	4a	Al-
=22	=22	=22	=22	=22	=22	=22	=22
4D	.	8AL	.	4d	.	4f	-le-
.	.	8B-J	.	.	.	.	.
4E	.	8AL	.	4c	.	4cc	-lu-
.	.	8GJ	.	.	.	.	.
4F;	.	4F;	.	4c;	.	4a;	-ja,
8AAL	.	4F	.	8cL	.	8ccL	al-
8BB-J	.	.	.	8dJ	.	8b-J	.
=23	=23	=23	=23	=23	=23	=23	=23
4C	.	4.c	.	(8e	.	4a	-le-
.	.	.	.	4f)	.	.	.
4CC	.	.	.	.	.	4g	-lu-
.	.	8B-	.	8e	.	.	.
4FF;	.	4A;	.	4c;	.	4f;	-ja,
4C#	.	4A	.	4e	.	8aL	al-
.	.	.	.	.	.	8gJ	.
=24	=24	=24	=24	=24	=24	=24	=24
8DL	.	4A	.	(8e	.	4f	-le-
8DDJ	.	.	.	4d)	.	.	.
8EEL	.	8GL	.	.	.	4e	-lu-
8FF#J	.	8AJ	.	8c	.	.	.
4GG;	.	4D;	.	8cL	.	4d;	-ja!
.	.	.	.	8B-;J	.	.	.
4AA	.	8AL	.	4c	.	4f	Dess
.	.	8FJ	.	.	.	.	.
=25	=25	=25	=25	=25	=25	=25	=25
4BB	.	(16DLL	.	4d	.	4g	soll'n
.	.	16EJJ	.	.	.	.	.
.	.	4F)	.	.	.	.	.
4C	.	.	.	8cL	.	4g	wir
.	.	8E	.	8GJ	.	.	.
8CL	.	8F#L	.	8AL	.	4d	al-
8BBJ	.	8G#J	.	8BJ	.	.	.
4AA	.	8AL	.	8cL	.	4c	-le
.	.	8GnJ	.	8B-J	.	.	.
=26	=26	=26	=26	=26	=26	=26	=26
8AAL	.	16FLL	.	16ALL	.	(4f	froh
.	.	16EJJ	.	16GJ	.	.	.
8D	.	4F	.	8A	.	.	.
8BB-	.	.	.	8d	.	4g)	.
8CJ	.	8E	.	8cJ	.	.	.
4F;	.	4F;	.	4c;	.	4a;	sein;
4FF	.	4c	.	8fL	.	8aL	Chri-
.	.	.	.	8eJ	.	8gJ	.
=27	=27	=27	=27	=27	=27	=27	=27
4BB-	.	8cL	.	4d	.	4f	-stus
.	.	16B-L	.	.	.	.	.
.	.	16AJJ	.	.	.	.	.
8E-L	.	4G	.	8dL	.	4g	will
8DJ	.	.	.	16cL	.	.	.
.	.	.	.	16B-JJ	.	.	.
8C#L	.	8GL	.	4A	.	4a	un-
8AAJ	.	16FL	.	.	.	.	.
.	.	16EJJ	.	.	.	.	.
4D	.	8FL	.	8AL	.	4f	-ser
.	.	16B-L	.	16dL	.	.	.
.	.	16AJJ	.	16cJJ	.	.	.
=28	=28	=28	=28	=28	=28	=28	=28
8DL	.	8G#L	.	8B	.	(4e	Trost
8CJ	.	8A	.	4A	.	.	.
4BB	.	8d	.	.	.	4d)	.
.	.	8DJ	.	8G#	.	.	.
2AA;	.	2A;	.	2c#;	.	2e;	sein.
=29	=29	=29	=29	=29	=29	=29	=29
8BB-L	Ky-	8FL	Ky-	4d	.	4d	Ky-
8AAJ	.	8GJ	.	.	.	.	.
8GGL	-rie	[4A	-rie	4c	.	4d	-rie
8FF#J	.	.	.	.	.	.	.
8GGL	e-	8AL]	.	8B-L	e-	2d	e-
8AA	.	16GL	.	8AJ	.	.	.
.	.	16F#JJ	.	.	.	.	.
8BB-	.	[4G	e-	16GLL	.	.	.
.	.	.	.	16AJ	.	.	.
8GGJ	.	.	.	[8B-J	.	.	.
=30	=30	=30	=30	=30	=30	=30	=30
1DD;	-leis!	8GL]	.	8B-L]	.	1d;	-leis!
.	.	8F#	.	8A	.	.	.
.	.	8G	.	8B-	.	.	.
.	.	8EJ	.	8GJ	.	.	.
.	.	2F#;	-leis!	2A;	-leis!	.	.
==|!	==|!	==|!	==|!	==|!	==|!	==|!	==|!
*-	*-	*-	*-	*-	*-	*-	*-
!!!RWG: Key is interpreted using the Humdrum key tool.
!!!END: 1994/05/11
!!!EMD: Converted from MuseData to Humdrum Dec 19, 2000, by Andreas Kornstaedt using muse2kern.
!!!EED: Craig Stuart Sapp
!!!EEV: 2024/03/31
!!!ONB: Some non-unicode characters
